X: 18521
T: I Had A Hat
R: reel
M: 4/4
K: Dmajor
ABAF GABc|dAAA A4|FFGE FAAF|EAAA A4|
dddd dddA|BABcd3d|cAAB ce2f|edcB A2A2|
Dd/d/BA FFFE|DdFF F3A|dd/d/cB AFFA/A/|BAdF E3A/A/|ddcB AFFA|ddcB A3A|dd/d/cB AFFA|dd/d/ee fdd2|

